tools/download-figma-icons/icons/outlined-medium/motion-detector.svg

<svg width="24" height="24" viewBox="0 0 24 24" fill="none" xmlns="http://www.w3.org/2000/svg">
<path fill-rule="evenodd" clip-rule="evenodd" d="M15.5177 11.9733C15.5184 12.4751 15.9264 12.8823 16.4274 12.8823C16.9292 12.8823 17.3372 12.4743 17.3372 11.9726C17.3372 11.4731 16.9322 11.0673 16.4334 11.0643C16.4327 11.0643 16.432 11.0644 16.4314 11.0645C16.4308 11.0646 16.4303 11.0647 16.4298 11.0648L16.4274 11.0651C16.3717 11.0651 16.3217 11.0783 16.2717 11.0916L16.2717 11.0916L16.2717 11.0916C16.2544 11.0962 16.2372 11.1008 16.2197 11.1048C15.8342 11.1986 15.5439 11.5233 15.5259 11.9328C15.5256 11.9396 15.5237 11.9459 15.5218 11.9521L15.5218 11.9521C15.5197 11.959 15.5177 11.9659 15.5177 11.9733ZM11.4602 20.0733H15.6774V14.2706C14.8659 14.0126 14.2607 13.3428 14.0792 12.4984C14.0774 12.4904 14.0754 12.4826 14.0734 12.4748C14.0703 12.4626 14.0672 12.4504 14.0649 12.4376C14.0364 12.2876 14.0177 12.1346 14.0177 11.9748V11.9733V11.9726C14.0177 11.9696 14.0184 11.9674 14.0184 11.9643C14.0192 11.8098 14.0364 11.6606 14.0642 11.5151C14.067 11.4973 14.0716 11.4803 14.0763 11.463L14.0794 11.4511C14.0812 11.4445 14.0829 11.4379 14.0844 11.4311C14.1137 11.3006 14.1527 11.1746 14.2022 11.0531C14.2067 11.0419 14.2112 11.0314 14.2157 11.0216C14.4549 10.4531 14.9012 10.0054 15.4697 9.7646C15.4801 9.75941 15.4908 9.75511 15.5016 9.75076L15.5016 9.75075C15.5079 9.7482 15.5143 9.74563 15.5207 9.74285C15.542 9.73464 15.5629 9.72556 15.5839 9.71647L15.5839 9.71647L15.5839 9.71646C15.6146 9.70314 15.6453 9.6898 15.6774 9.6791V3.8951H11.4602V20.0733ZM1.49193 3.75935L1.50018 20.1603L9.97593 22.4996L9.97443 20.8976C9.97372 20.8852 9.97051 20.8738 9.96732 20.8625C9.96374 20.8498 9.96018 20.8372 9.96018 20.8233V3.1451C9.96018 3.14405 9.9605 3.14317 9.96085 3.14222C9.96125 3.14113 9.96168 3.13995 9.96168 3.13835L9.96018 1.48835L1.49193 3.75935ZM17.1775 9.69489C18.1375 10.0121 18.8372 10.9076 18.8372 11.9726C18.8372 13.0376 18.1375 13.9331 17.1775 14.2504V20.4544C17.1775 21.0716 16.6757 21.5734 16.0585 21.5734H11.4587V22.5109C11.4587 22.9781 11.2457 23.4086 10.8752 23.6921C10.6112 23.8946 10.2962 23.9989 9.97449 23.9989C9.84399 23.9989 9.71124 23.9824 9.58074 23.9464L1.09674 21.6056C0.450244 21.4294 0.000244141 20.8391 0.000244141 20.1701L0.00174414 3.74664C0.00174414 3.07314 0.456244 2.48214 1.10649 2.30889L9.58974 0.0506412C10.0382 -0.0678588 10.5107 0.0243912 10.8797 0.308641C11.2487 0.592891 11.4602 1.02264 11.4602 1.48839V2.39514H16.0585C16.6757 2.39514 17.1775 2.89689 17.1775 3.51414V9.69489ZM6.65255 11.2337H8.4968C8.91155 11.2337 9.2468 11.5689 9.2468 11.9837C9.2468 12.3984 8.91155 12.7337 8.4968 12.7337H6.65255C6.2378 12.7337 5.90255 12.3984 5.90255 11.9837C5.90255 11.5689 6.2378 11.2337 6.65255 11.2337ZM19.9562 8.4541C19.663 8.16085 19.189 8.16085 18.8957 8.4541C18.6025 8.74735 18.6025 9.22135 18.8957 9.5146C20.257 10.8759 20.257 13.0914 18.8957 14.4526C18.6025 14.7459 18.6025 15.2199 18.8957 15.5131C19.042 15.6594 19.234 15.7329 19.426 15.7329C19.618 15.7329 19.81 15.6594 19.9562 15.5131C21.9025 13.5669 21.9025 10.4004 19.9562 8.4541ZM20.7217 6.62013C21.015 6.32688 21.489 6.32688 21.7822 6.62013C24.7357 9.57363 24.7357 14.3774 21.7822 17.3301C21.636 17.4771 21.444 17.5499 21.252 17.5499C21.06 17.5499 20.868 17.4771 20.7217 17.3301C20.4285 17.0376 20.4285 16.5629 20.7217 16.2696C23.0895 13.9019 23.0895 10.0484 20.7217 7.68063C20.4285 7.38738 20.4285 6.91338 20.7217 6.62013Z" fill="black"/>
</svg>

<svg xmlns="http://www.w3.org/2000/svg" width="24" height="24" fill="none" viewBox="0 0 24 24"><path fill="currentColor" fill-rule="evenodd" d="M15.518 11.973a.91.91 0 0 0 1.82 0 .91.91 0 0 0-.908-.908h-.003a.6.6 0 0 0-.155.027l-.052.013a.894.894 0 0 0-.694.828l-.004.02zm-4.058 8.1h4.217v-5.802a2.37 2.37 0 0 1-1.598-1.773l-.006-.023-.008-.037a2.5 2.5 0 0 1-.047-.463v-.011a2.5 2.5 0 0 1 .058-.501l.003-.012.005-.02a2.4 2.4 0 0 1 .132-.41 2.35 2.35 0 0 1 1.254-1.256q.014-.009.032-.014l.019-.008.063-.027q.045-.02.093-.037V3.895H11.46zM1.492 3.76l.008 16.4 8.476 2.34-.002-1.602-.007-.035q-.006-.02-.007-.04V3.142l.002-.004-.002-1.65zm15.685 5.936a2.405 2.405 0 0 1 1.66 2.278c0 1.065-.7 1.96-1.66 2.277v6.204a1.12 1.12 0 0 1-1.119 1.12h-4.6v.937c0 .467-.212.898-.583 1.181a1.47 1.47 0 0 1-1.294.254l-8.484-2.34A1.49 1.49 0 0 1 0 20.17L.002 3.747a1.49 1.49 0 0 1 1.104-1.438L9.59.05a1.48 1.48 0 0 1 1.29.258c.369.284.58.714.58 1.18v.906h4.598a1.12 1.12 0 0 1 1.12 1.12zM6.653 11.234h1.844a.75.75 0 1 1 0 1.5H6.653a.75.75 0 1 1 0-1.5m13.303-2.78a.75.75 0 1 0-1.06 1.06 3.496 3.496 0 0 1 0 4.939.75.75 0 1 0 1.06 1.06 4.997 4.997 0 0 0 0-7.059m.766-1.834a.75.75 0 0 1 1.06 0c2.954 2.954 2.954 7.757 0 10.71a.75.75 0 0 1-.53.22.75.75 0 0 1-.53-1.28 6.08 6.08 0 0 0 0-8.59.75.75 0 0 1 0-1.06" clip-rule="evenodd"/></svg>
